svg/u1f5a4.svg

<svg viewBox="0 0 128 128" xmlns="http://www.w3.org/2000/svg">
  <g>
    <path d="M93.99,8.97c-21.91,0-29.96,22.39-29.96,22.39S56.09,8.97,34.03,8.97 c-16.58,0-35.48,13.14-28.5,43.01c6.98,29.87,58.56,67.08,58.56,67.08s51.39-37.21,58.38-67.08 C129.45,22.11,111.91,8.97,93.99,8.97z" fill="#424242"/>
    <g>
      <path d="M30.65,11.2c17.2,0,25.74,18.49,28.5,25.98c0.39,1.07,1.88,1.1,2.33,0.06L64,31.35 C60.45,20.01,50.69,8.97,34.03,8.97c-6.9,0-14.19,2.28-19.86,7.09C19.18,12.77,25.05,11.2,30.65,11.2z" fill="#575757"/>
      <path d="M93.99,8.97c-5.29,0-9.77,1.54-13.53,3.85c2.64-1.02,5.56-1.62,8.8-1.62 c16.21,0,30.72,12.29,24.17,40.7c-5.62,24.39-38.46,53.98-48.49,65.27c-0.64,0.72-0.86,1.88-0.86,1.88s51.39-37.21,58.38-67.08 C129.45,22.11,110.57,8.97,93.99,8.97z" fill="#575757"/>
    </g>
    <path d="M17.04,24.82c3.75-4.68,10.45-8.55,16.13-4.09c3.07,2.41,1.73,7.35-1.02,9.43 c-4,3.04-7.48,4.87-9.92,9.63c-1.46,2.86-2.34,5.99-2.79,9.18c-0.18,1.26-1.83,1.57-2.45,0.46 C12.77,41.95,11.57,31.65,17.04,24.82z" fill="#787878"/>
    <path d="M77.16,34.66c-1.76,0-3-1.7-2.36-3.34c1.19-3.02,2.73-5.94,4.58-8.54 c2.74-3.84,7.95-6.08,11.25-3.75c3.38,2.38,2.94,7.14,0.57,9.44C86.11,33.4,79.69,34.66,77.16,34.66z" fill="#787878"/>
  </g>
</svg>

<svg viewBox="0 0 128 128" xmlns="http://www.w3.org/2000/svg">
  <defs/>
  <path d="M93.99,8.97 C72.08,8.97 64.03,31.36 64.03,31.36 C64.03,31.36 56.09,8.97 34.03,8.97 C17.45,8.97 -1.45,22.11 5.53,51.98 C12.51,81.85 64.09,119.06 64.09,119.06 C64.09,119.06 115.48,81.85 122.47,51.98 C129.45,22.11 111.91,8.97 93.99,8.97 Z" fill="#424242"/>
  <path d="M30.65,11.2 C47.85,11.2 56.39,29.69 59.15,37.18 C59.54,38.25 61.03,38.28 61.48,37.24 L64,31.35 C60.45,20.01 50.69,8.97 34.03,8.97 C27.13,8.97 19.84,11.25 14.17,16.06 C19.18,12.77 25.05,11.2 30.65,11.2 Z" fill="#575757"/>
  <path d="M93.99,8.97 C88.7,8.97 84.22,10.51 80.46,12.82 C83.1,11.8 86.02,11.2 89.26,11.2 C105.47,11.2 119.98,23.49 113.43,51.9 C107.81,76.29 74.97,105.88 64.94,117.17 C64.3,117.89 64.08,119.05 64.08,119.05 C64.08,119.05 115.47,81.84 122.46,51.97 C129.45,22.11 110.57,8.97 93.99,8.97 Z" fill="#575757"/>
  <path d="M17.04,24.82 C20.79,20.14 27.49,16.27 33.17,20.73 C36.24,23.14 34.9,28.08 32.15,30.16 C28.15,33.2 24.67,35.03 22.23,39.79 C20.77,42.65 19.89,45.78 19.44,48.97 C19.26,50.23 17.61,50.54 16.99,49.43 C12.77,41.95 11.57,31.65 17.04,24.82 Z" fill="#787878"/>
  <path d="M77.16,34.66 C75.4,34.66 74.16,32.96 74.8,31.32 C75.99,28.3 77.53,25.38 79.38,22.78 C82.12,18.94 87.33,16.7 90.63,19.03 C94.01,21.41 93.57,26.17 91.2,28.47 C86.11,33.4 79.69,34.66 77.16,34.66 Z" fill="#787878"/>
</svg>
